X:1
T:Lynn, CM
T:Lynn, CM
T:Sabbath School Melodist, 1850
T:Public Domain Courtesy of the Cyber Hymnal™
C:Sabbath School Melodist, 1850
Z:Public Domain
Z:Courtesy of the Cyber Hymnal™
%%score ( 1 2 ) ( 3 4 )
L:1/8
Q:1/4=97
M:3/4
K:D
V:1 treble 
V:2 treble 
V:3 bass 
V:4 bass 
V:1
 [FA]2 | [FA]>[EG] [DF][EG] [FA][GB] | [FA]4 [EA]2 | [FA][DA] ([DB][Gc]) [Fd]2 | %4
 ([Fd]2 [Ec]2) [FA]2 | [FA]>[EG] [DF][EG] [FA][GB] | [FA]4 A2 | [GB][Ge] [Fd]2 [Ec]2 | [Fd]4 |] %9
V:2
 x2 | x6 | x6 | x6 | x6 | x6 | x4 A2 | x6 | x4 |] %9
V:3
 [D,A,]2 | [D,A,]>[D,A,] [D,A,][D,D] [D,D][D,D] | [D,D]4 [A,,C]2 | [D,D][F,A,] G,2 [D,A,]2 | %4
 A,4 [D,A,]2 | [D,A,]>[D,A,] [D,A,][D,D] [D,D][D,D] | [D,D]4 [F,D]2 | [G,D][G,B,] A,2 [A,,A,]2 | %8
 [D,A,]4 |] %9
V:4
 x2 | x6 | x6 | x2 (G,E,) x2 | A,4 x2 | x6 | x6 | x2 A,2 x2 | x4 |] %9

